svgs/samsung_wear.svg

<svg width="24" height="24" viewBox="0 0 24 24" fill="none" xmlns="http://www.w3.org/2000/svg">
<path d="M2 9H3.06325L4.09654 12.8262L5.24215 9H6.24549L7.38362 12.8112L8.40942 9H9.43523L7.89278 14.466H6.88194L5.73633 10.6098L4.59073 14.466H3.55743L2 9Z" fill="#FFF1C0"/>
<path d="M11.349 14.5558C11.0046 14.5558 10.6901 14.4984 10.4056 14.3836C10.1211 14.2638 9.87646 14.1016 9.67179 13.8969C9.47212 13.6923 9.31488 13.4527 9.20007 13.1781C9.09025 12.8986 9.03534 12.6016 9.03534 12.2871C9.03534 11.9676 9.09275 11.6681 9.20756 11.3886C9.32736 11.109 9.48959 10.8669 9.69426 10.6623C9.89892 10.4576 10.1385 10.2954 10.4131 10.1756C10.6926 10.0558 10.9921 9.99586 11.3116 9.99586C11.6361 9.99586 11.9356 10.0533 12.2101 10.1681C12.4896 10.2779 12.7292 10.4351 12.9289 10.6398C13.1286 10.8395 13.2833 11.0766 13.3932 11.3511C13.508 11.6257 13.5654 11.9252 13.5654 12.2496V12.6315H10.0013C10.0711 12.941 10.2234 13.1906 10.458 13.3803C10.6926 13.57 10.9896 13.6648 11.349 13.6648C11.6336 13.6648 11.8806 13.5949 12.0903 13.4551C12.3 13.3154 12.4572 13.1282 12.562 12.8936L13.3932 13.3728C13.2035 13.7272 12.9364 14.0142 12.592 14.2339C12.2525 14.4485 11.8382 14.5558 11.349 14.5558ZM11.3116 10.8869C11.0071 10.8869 10.7425 10.9693 10.5179 11.134C10.2983 11.2987 10.1435 11.5158 10.0537 11.7854H12.5396C12.4647 11.4909 12.3199 11.2688 12.1053 11.119C11.8906 10.9643 11.6261 10.8869 11.3116 10.8869Z" fill="#FFF1C0"/>
<path d="M16.0324 14.5558C15.7679 14.5558 15.5058 14.5059 15.2462 14.4061C14.9916 14.3013 14.762 14.1515 14.5574 13.9568C14.3527 13.7621 14.188 13.525 14.0632 13.2455C13.9384 12.961 13.876 12.639 13.876 12.2796C13.876 11.9152 13.9359 11.5932 14.0557 11.3137C14.1805 11.0292 14.3427 10.7895 14.5424 10.5949C14.7471 10.4002 14.9792 10.2529 15.2387 10.1531C15.4983 10.0483 15.7679 9.99586 16.0474 9.99586C16.3369 9.99586 16.604 10.0508 16.8486 10.1606C17.0932 10.2704 17.2953 10.4202 17.4551 10.6098V10.0857H18.4659V14.466H17.4551V13.8969C17.2953 14.1016 17.0907 14.2638 16.8411 14.3836C16.5915 14.4984 16.322 14.5558 16.0324 14.5558ZM16.1972 13.6274C16.3819 13.6274 16.5541 13.5924 16.7138 13.5225C16.8785 13.4527 17.0183 13.3553 17.1331 13.2305C17.2479 13.1057 17.3378 12.961 17.4027 12.7962C17.4726 12.6315 17.5075 12.4543 17.5075 12.2646C17.5075 12.0799 17.4726 11.9052 17.4027 11.7405C17.3378 11.5757 17.2479 11.4335 17.1331 11.3137C17.0183 11.1889 16.8785 11.0915 16.7138 11.0217C16.5541 10.9518 16.3819 10.9168 16.1972 10.9168C16.0075 10.9168 15.8328 10.9518 15.673 11.0217C15.5133 11.0915 15.3735 11.1864 15.2537 11.3062C15.1339 11.426 15.0391 11.5683 14.9692 11.733C14.9043 11.8977 14.8718 12.0749 14.8718 12.2646C14.8718 12.4543 14.9043 12.634 14.9692 12.8037C15.0391 12.9685 15.1339 13.1132 15.2537 13.238C15.3735 13.3578 15.5133 13.4527 15.673 13.5225C15.8328 13.5924 16.0075 13.6274 16.1972 13.6274Z" fill="#FFF1C0"/>
<path d="M19.0783 10.0857H20.0816V10.7371C20.2813 10.3029 20.6557 10.0857 21.2048 10.0857C21.3645 10.0857 21.5068 10.1032 21.6316 10.1381C21.7613 10.1731 21.8761 10.218 21.976 10.2729L21.5941 11.2313C21.5192 11.1814 21.4344 11.1415 21.3395 11.1115C21.2497 11.0766 21.1324 11.0591 20.9876 11.0591C20.6931 11.0591 20.4685 11.144 20.3137 11.3137C20.164 11.4784 20.0891 11.7505 20.0891 12.1298V14.466H19.0783V10.0857Z" fill="#FFF1C0"/>
</svg>

<svg xmlns="http://www.w3.org/2000/svg" width="24" height="24" fill="none" viewBox="0 0 24 24"><path fill="#FFF1C0" d="M2 9h1.063l1.034 3.826L5.242 9h1.003l1.139 3.811L8.409 9h1.026l-1.542 5.466H6.882L5.736 10.61l-1.145 3.856H3.557zm9.349 5.556a2.5 2.5 0 0 1-.943-.172 2.27 2.27 0 0 1-.734-.487 2.273 2.273 0 0 1-.472-.719 2.414 2.414 0 0 1-.165-.89c0-.32.058-.62.173-.9a2.29 2.29 0 0 1 1.205-1.212c.28-.12.58-.18.899-.18a2.3 2.3 0 0 1 .898.172 2.093 2.093 0 0 1 1.183 1.183c.115.275.172.574.172.899v.382h-3.564c.07.309.222.559.457.748.235.19.532.285.891.285a1.3 1.3 0 0 0 .741-.21c.21-.14.367-.327.472-.561l.831.479c-.19.354-.457.641-.801.86-.34.215-.754.323-1.243.323m-.037-3.67c-.305 0-.57.083-.794.248-.22.165-.375.382-.464.651h2.486c-.075-.294-.22-.516-.435-.666-.214-.155-.479-.232-.793-.232m4.72 3.669c-.264 0-.526-.05-.786-.15a2.216 2.216 0 0 1-1.183-1.16 2.382 2.382 0 0 1-.187-.966c0-.365.06-.687.18-.966.125-.285.287-.524.486-.72a2.09 2.09 0 0 1 .697-.44c.26-.106.529-.158.808-.158.29 0 .557.055.802.165.244.11.446.26.606.449v-.524h1.01v4.38h-1.01v-.57c-.16.206-.364.368-.614.488-.25.114-.519.172-.809.172m.165-.929a1.274 1.274 0 0 0 1.206-.83 1.35 1.35 0 0 0 .105-.532c0-.185-.035-.36-.105-.524a1.295 1.295 0 0 0-.69-.72 1.274 1.274 0 0 0-.516-.104c-.19 0-.364.035-.524.105a1.332 1.332 0 0 0-.704.711 1.437 1.437 0 0 0-.097.532c0 .19.032.369.097.539.07.165.165.31.285.434a1.294 1.294 0 0 0 .943.389m2.881-3.541h1.004v.651c.2-.434.574-.651 1.123-.651a1.588 1.588 0 0 1 .771.187l-.382.958a1 1 0 0 0-.255-.12.987.987 0 0 0-.351-.052c-.295 0-.52.085-.674.255-.15.164-.225.437-.225.816v2.336h-1.01v-4.38"/></svg>
